material/.icons/material/lightbulb.svg

<svg xmlns="http://www.w3.org/2000/svg" viewBox="0 0 24 24"><path d="M12 2a7 7 0 00-7 7c0 2.38 1.19 4.47 3 5.74V17a1 1 0 001 1h6a1 1 0 001-1v-2.26c1.81-1.27 3-3.36 3-5.74a7 7 0 00-7-7M9 21a1 1 0 001 1h4a1 1 0 001-1v-1H9v1z"/></svg>

<?xml version="1.0" encoding="UTF-8"?><!DOCTYPE svg PUBLIC "-//W3C//DTD SVG 1.1//EN" "http://www.w3.org/Graphics/SVG/1.1/DTD/svg11.dtd"><svg xmlns="http://www.w3.org/2000/svg" xmlns:xlink="http://www.w3.org/1999/xlink" version="1.1" id="mdi-lightbulb" width="24" height="24" viewBox="0 0 24 24"><path d="M12,2A7,7 0 0,0 5,9C5,11.38 6.19,13.47 8,14.74V17A1,1 0 0,0 9,18H15A1,1 0 0,0 16,17V14.74C17.81,13.47 19,11.38 19,9A7,7 0 0,0 12,2M9,21A1,1 0 0,0 10,22H14A1,1 0 0,0 15,21V20H9V21Z" /></svg>
